packages/icons/src/pencil-1.svg

<svg width="15" height="15" viewBox="0 0 15 15" fill="none" xmlns="http://www.w3.org/2000/svg">
  <path
    fill-rule="evenodd"
    clip-rule="evenodd"
    d="M11.8536 1.14645C11.6583 0.951184 11.3417 0.951184 11.1465 1.14645L3.71455 8.57836C3.62459 8.66832 3.55263 8.77461 3.50251 8.89155L2.04044 12.303C1.9599 12.491 2.00189 12.709 2.14646 12.8536C2.29103 12.9981 2.50905 13.0401 2.69697 12.9596L6.10847 11.4975C6.2254 11.4474 6.3317 11.3754 6.42166 11.2855L13.8536 3.85355C14.0488 3.65829 14.0488 3.34171 13.8536 3.14645L11.8536 1.14645ZM4.42166 9.28547L11.5 2.20711L12.7929 3.5L5.71455 10.5784L4.21924 11.2192L3.78081 10.7808L4.42166 9.28547Z"
    fill="currentColor"
  />
</svg>

<svg xmlns="http://www.w3.org/2000/svg" width="15" height="15" fill="none"><path fill="currentColor" fill-rule="evenodd" d="M11.854 1.146a.5.5 0 0 0-.707 0L3.714 8.578a1 1 0 0 0-.212.314L2.04 12.303a.5.5 0 0 0 .657.657l3.411-1.463a1 1 0 0 0 .314-.211l7.432-7.432a.5.5 0 0 0 0-.708zm-7.432 8.14 7.078-7.08L12.793 3.5l-7.078 7.078-1.496.641-.438-.438z" clip-rule="evenodd"/></svg>
